packages/assets/static/images/icons/doc-generic.svg

<svg width="24" height="24" viewBox="0 0 24 24" xmlns="http://www.w3.org/2000/svg">
<path d="M20.0306 7.71938L14.7806 2.46938C14.7109 2.39975 14.6282 2.34454 14.5371 2.3069C14.4461 2.26926 14.3485 2.24992 14.25 2.25H5.25C4.85218 2.25 4.47064 2.40804 4.18934 2.68934C3.90804 2.97064 3.75 3.35218 3.75 3.75V20.25C3.75 20.6478 3.90804 21.0294 4.18934 21.3107C4.47064 21.592 4.85218 21.75 5.25 21.75H18.75C19.1478 21.75 19.5294 21.592 19.8107 21.3107C20.092 21.0294 20.25 20.6478 20.25 20.25V8.25C20.2501 8.15148 20.2307 8.05391 20.1931 7.96286C20.1555 7.87182 20.1003 7.78908 20.0306 7.71938ZM15 4.81031L17.6897 7.5H15V4.81031ZM18.75 20.25H5.25V3.75H13.5V8.25C13.5 8.44891 13.579 8.63968 13.7197 8.78033C13.8603 8.92098 14.0511 9 14.25 9H18.75V20.25ZM14.7806 14.4694C14.8504 14.539 14.9057 14.6217 14.9434 14.7128C14.9812 14.8038 15.0006 14.9014 15.0006 15C15.0006 15.0986 14.9812 15.1962 14.9434 15.2872C14.9057 15.3783 14.8504 15.461 14.7806 15.5306L12.5306 17.7806C12.461 17.8504 12.3783 17.9057 12.2872 17.9434C12.1962 17.9812 12.0986 18.0006 12 18.0006C11.9014 18.0006 11.8038 17.9812 11.7128 17.9434C11.6217 17.9057 11.539 17.8504 11.4694 17.7806L9.21937 15.5306C9.07864 15.3899 8.99958 15.199 8.99958 15C8.99958 14.801 9.07864 14.6101 9.21937 14.4694C9.36011 14.3286 9.55098 14.2496 9.75 14.2496C9.94902 14.2496 10.1399 14.3286 10.2806 14.4694L11.25 15.4397V11.25C11.25 11.0511 11.329 10.8603 11.4697 10.7197C11.6103 10.579 11.8011 10.5 12 10.5C12.1989 10.5 12.3897 10.579 12.5303 10.7197C12.671 10.8603 12.75 11.0511 12.75 11.25V15.4397L13.7194 14.4694C13.789 14.3996 13.8717 14.3443 13.9628 14.3066C14.0538 14.2688 14.1514 14.2494 14.25 14.2494C14.3486 14.2494 14.4462 14.2688 14.5372 14.3066C14.6283 14.3443 14.711 14.3996 14.7806 14.4694Z"/>
</svg>

<svg viewBox="0 0 24 24" xmlns="http://www.w3.org/2000/svg" aria-hidden="true" fill="currentColor"><path d="m20.03 7.72-5.25-5.25a.75.75 0 0 0-.53-.22h-9a1.5 1.5 0 0 0-1.5 1.5v16.5a1.5 1.5 0 0 0 1.5 1.5h13.5a1.5 1.5 0 0 0 1.5-1.5v-12a.75.75 0 0 0-.22-.53M15 4.81l2.69 2.69H15zm3.75 15.44H5.25V3.75h8.25v4.5a.75.75 0 0 0 .75.75h4.5zm-3.97-5.78a.747.747 0 0 1 0 1.06l-2.25 2.25a.747.747 0 0 1-1.06 0l-2.25-2.25a.75.75 0 1 1 1.06-1.06l.97.97v-4.19a.75.75 0 1 1 1.5 0v4.19l.97-.97a.747.747 0 0 1 1.06 0"/></svg>
